src/auth/components/img/lock.svg

<svg height="50" viewBox="0 0 50 50" width="50" xmlns="http://www.w3.org/2000/svg"><g fill="#fff" fill-rule="evenodd" transform="translate(10 5)"><path d="m2.593625 25.12625c.006875-6.718125 5.45125-12.161875 12.16875-12.16875 6.720625 0 12.16875 5.448125 12.16875 12.16875s-5.448125 12.16875-12.16875 12.16875-12.16875-5.448125-12.16875-12.16875m-2.59375 0c.006875 8.15 6.6125 14.755625 14.7625 14.7625 8.153125 0 14.7625-6.609375 14.7625-14.7625s-6.609375-14.7625-14.7625-14.7625c-2.1275 0-4.1475.453125-5.975 1.26375v-4.795c0-2.29375 2.75-4.225 6.00625-4.225 1.679375-.038125 3.31875.51 4.6375 1.55l1.6875-1.975c-1.786875-1.44625-4.025625-2.21875-6.325-2.18125-4.74375 0-8.60625 3.05625-8.60625 6.81875l.005625 6.289375c-3.7475 2.6775-6.193125 7.06-6.193125 12.016875"/><path d="m14.7625 22.344875c1.539375 0 2.7875 1.248125 2.7875 2.7875 0 1.0675-.606875 1.98375-1.4875 2.451875v5.304375h-2.59375v-5.300625c-.884375-.4675-1.49375-1.385625-1.49375-2.455625 0-1.539375 1.248125-2.7875 2.7875-2.7875"/><path d="m14.7625 22.344875c1.539375 0 2.7875 1.248125 2.7875 2.7875 0 1.0675-.606875 1.98375-1.4875 2.451875v5.304375h-2.59375v-5.300625c-.884375-.4675-1.49375-1.385625-1.49375-2.455625 0-1.539375 1.248125-2.7875 2.7875-2.7875"/></g></svg>

<?xml version="1.0" encoding="UTF-8"?>
<svg width="50px" height="50px" viewBox="0 0 50 50" version="1.1" xmlns="http://www.w3.org/2000/svg" xmlns:xlink="http://www.w3.org/1999/xlink">
    <!-- Generator: Sketch 48.2 (47327) - http://www.bohemiancoding.com/sketch -->
    <title>lock</title>
    <desc>Created with Sketch.</desc>
    <defs></defs>
    <g id="Login" stroke="none" stroke-width="1" fill="none" fill-rule="evenodd">
        <g id="lock" fill="#FFFFFF">
            <g id="Group" transform="translate(10.000000, 5.000000)">
                <g id="Icon">
                    <path d="M2.593625,25.12625 C2.6005,18.408125 8.044875,12.964375 14.762375,12.9575 C21.483,12.9575 26.931125,18.405625 26.931125,25.12625 C26.931125,31.846875 21.483,37.295 14.762375,37.295 C8.04175,37.295 2.593625,31.846875 2.593625,25.12625 M-0.000125,25.12625 C0.00675,33.27625 6.612375,39.881875 14.762375,39.88875 C22.9155,39.88875 29.524875,33.279375 29.524875,25.12625 C29.524875,16.973125 22.9155,10.36375 14.762375,10.36375 C12.634875,10.36375 10.614875,10.816875 8.787375,11.6275 L8.787375,6.8325 C8.787375,4.53875 11.537375,2.6075 14.793625,2.6075 C16.473,2.569375 18.112375,3.1175 19.431125,4.1575 L21.118625,2.1825 C19.33175,0.73625 17.093,-0.03625 14.793625,0.00125 C10.049875,0.00125 6.187375,3.0575 6.187375,6.82 L6.193,13.109375 C2.4455,15.786875 -0.000125,20.169375 -0.000125,25.12625" id="Fill-1"></path>
                    <path d="M14.7625,22.344875 C16.301875,22.344875 17.55,23.593 17.55,25.132375 C17.55,26.199875 16.943125,27.116125 16.0625,27.58425 L16.0625,32.888625 L13.46875,32.888625 L13.46875,27.588 C12.584375,27.1205 11.975,26.202375 11.975,25.132375 C11.975,23.593 13.223125,22.344875 14.7625,22.344875" id="Fill-4"></path>
                </g>
                <path d="M14.7625,22.344875 C16.301875,22.344875 17.55,23.593 17.55,25.132375 C17.55,26.199875 16.943125,27.116125 16.0625,27.58425 L16.0625,32.888625 L13.46875,32.888625 L13.46875,27.588 C12.584375,27.1205 11.975,26.202375 11.975,25.132375 C11.975,23.593 13.223125,22.344875 14.7625,22.344875" id="Fill-4"></path>
            </g>
        </g>
    </g>
</svg>
